img/svg/fingerprint-icon.svg

<svg width="56" height="56" fill="none" xmlns="http://www.w3.org/2000/svg"><rect width="56" height="56" rx="12" fill="#DCF2ED"/><path d="M33.81 20.47c-.08 0-.16-.02-.23-.06C31.66 19.42 30 19 28.01 19c-1.98 0-3.86.47-5.57 1.41-.24.13-.54.04-.68-.2a.506.506 0 0 1 .2-.68c1.86-1.01 3.9-1.53 6.05-1.53 2.13 0 3.99.47 6.03 1.52.25.13.34.43.21.67a.49.49 0 0 1-.44.28ZM19.5 25.72a.499.499 0 0 1-.41-.79c.99-1.4 2.25-2.5 3.75-3.27 3.14-1.62 7.16-1.63 10.31-.01 1.5.77 2.76 1.86 3.75 3.25a.5.5 0 0 1-.12.7c-.23.16-.54.11-.7-.12a9.388 9.388 0 0 0-3.39-2.94c-2.87-1.47-6.54-1.47-9.4.01-1.36.7-2.5 1.7-3.4 2.96-.08.14-.23.21-.39.21Zm6.25 12.07a.47.47 0 0 1-.35-.15c-.87-.87-1.34-1.43-2.01-2.64-.69-1.23-1.05-2.73-1.05-4.34 0-2.97 2.54-5.39 5.66-5.39s5.66 2.42 5.66 5.39c0 .28-.22.5-.5.5s-.5-.22-.5-.5c0-2.42-2.09-4.39-4.66-4.39-2.57 0-4.66 1.97-4.66 4.39 0 1.44.32 2.77.93 3.85.64 1.15 1.08 1.64 1.85 2.42.19.2.19.51 0 .71-.11.1-.24.15-.37.15Zm7.17-1.85c-1.19 0-2.24-.3-3.1-.89-1.49-1.01-2.38-2.65-2.38-4.39 0-.28.22-.5.5-.5s.5.22.5.5c0 1.41.72 2.74 1.94 3.56.71.48 1.54.71 2.54.71.24 0 .64-.03 1.04-.1.27-.05.53.13.58.41.05.27-.13.53-.41.58-.57.11-1.07.12-1.21.12ZM30.91 38c-.04 0-.09-.01-.13-.02-1.59-.44-2.63-1.03-3.72-2.1a7.297 7.297 0 0 1-2.17-5.22c0-1.62 1.38-2.94 3.08-2.94 1.7 0 3.08 1.32 3.08 2.94 0 1.07.93 1.94 2.08 1.94s2.08-.87 2.08-1.94c0-3.77-3.25-6.83-7.25-6.83-2.84 0-5.44 1.58-6.61 4.03-.39.81-.59 1.76-.59 2.8 0 .78.07 2.01.67 3.61.1.26-.03.55-.29.64-.26.1-.55-.04-.64-.29a11.14 11.14 0 0 1-.73-3.96c0-1.2.23-2.29.68-3.24 1.33-2.79 4.28-4.6 7.51-4.6 4.55 0 8.25 3.51 8.25 7.83 0 1.62-1.38 2.94-3.08 2.94-1.7 0-3.08-1.32-3.08-2.94 0-1.07-.93-1.94-2.08-1.94s-2.08.87-2.08 1.94c0 1.71.66 3.31 1.87 4.51.95.94 1.86 1.46 3.27 1.85.27.07.42.35.35.61-.05.23-.26.38-.47.38Z" fill="#20484F"/></svg>

<svg width="56" height="56" viewBox="0 0 56 56" fill="none" xmlns="http://www.w3.org/2000/svg">
<rect width="56" height="56" rx="12" fill="#DCF2ED"/>
<path d="M33.81 20.47C33.73 20.47 33.65 20.45 33.58 20.41C31.66 19.42 30 19 28.01 19C26.03 19 24.15 19.47 22.44 20.41C22.2 20.54 21.9 20.45 21.76 20.21C21.63 19.97 21.72 19.66 21.96 19.53C23.82 18.52 25.86 18 28.01 18C30.14 18 32 18.47 34.04 19.52C34.29 19.65 34.38 19.95 34.25 20.19C34.16 20.37 33.99 20.47 33.81 20.47ZM19.5 25.72C19.4 25.72 19.3 25.69 19.21 25.63C18.98 25.47 18.93 25.16 19.09 24.93C20.08 23.53 21.34 22.43 22.84 21.66C25.98 20.04 30 20.03 33.15 21.65C34.65 22.42 35.91 23.51 36.9 24.9C37.06 25.12 37.01 25.44 36.78 25.6C36.55 25.76 36.24 25.71 36.08 25.48C35.18 24.22 34.04 23.23 32.69 22.54C29.82 21.07 26.15 21.07 23.29 22.55C21.93 23.25 20.79 24.25 19.89 25.51C19.81 25.65 19.66 25.72 19.5 25.72ZM25.75 37.79C25.62 37.79 25.49 37.74 25.4 37.64C24.53 36.77 24.06 36.21 23.39 35C22.7 33.77 22.34 32.27 22.34 30.66C22.34 27.69 24.88 25.27 28 25.27C31.12 25.27 33.66 27.69 33.66 30.66C33.66 30.94 33.44 31.16 33.16 31.16C32.88 31.16 32.66 30.94 32.66 30.66C32.66 28.24 30.57 26.27 28 26.27C25.43 26.27 23.34 28.24 23.34 30.66C23.34 32.1 23.66 33.43 24.27 34.51C24.91 35.66 25.35 36.15 26.12 36.93C26.31 37.13 26.31 37.44 26.12 37.64C26.01 37.74 25.88 37.79 25.75 37.79ZM32.92 35.94C31.73 35.94 30.68 35.64 29.82 35.05C28.33 34.04 27.44 32.4 27.44 30.66C27.44 30.38 27.66 30.16 27.94 30.16C28.22 30.16 28.44 30.38 28.44 30.66C28.44 32.07 29.16 33.4 30.38 34.22C31.09 34.7 31.92 34.93 32.92 34.93C33.16 34.93 33.56 34.9 33.96 34.83C34.23 34.78 34.49 34.96 34.54 35.24C34.59 35.51 34.41 35.77 34.13 35.82C33.56 35.93 33.06 35.94 32.92 35.94ZM30.91 38C30.87 38 30.82 37.99 30.78 37.98C29.19 37.54 28.15 36.95 27.06 35.88C25.66 34.49 24.89 32.64 24.89 30.66C24.89 29.04 26.27 27.72 27.97 27.72C29.67 27.72 31.05 29.04 31.05 30.66C31.05 31.73 31.98 32.6 33.13 32.6C34.28 32.6 35.21 31.73 35.21 30.66C35.21 26.89 31.96 23.83 27.96 23.83C25.12 23.83 22.52 25.41 21.35 27.86C20.96 28.67 20.76 29.62 20.76 30.66C20.76 31.44 20.83 32.67 21.43 34.27C21.53 34.53 21.4 34.82 21.14 34.91C20.88 35.01 20.59 34.87 20.5 34.62C20.01 33.31 19.77 32.01 19.77 30.66C19.77 29.46 20 28.37 20.45 27.42C21.78 24.63 24.73 22.82 27.96 22.82C32.51 22.82 36.21 26.33 36.21 30.65C36.21 32.27 34.83 33.59 33.13 33.59C31.43 33.59 30.05 32.27 30.05 30.65C30.05 29.58 29.12 28.71 27.97 28.71C26.82 28.71 25.89 29.58 25.89 30.65C25.89 32.36 26.55 33.96 27.76 35.16C28.71 36.1 29.62 36.62 31.03 37.01C31.3 37.08 31.45 37.36 31.38 37.62C31.33 37.85 31.12 38 30.91 38Z" fill="#20484F"/>
</svg>
